X:1
T:Is He Satisfied with Me?
T:Is He Satisfied with Me?
T:Grace B. Maxwell
T:Grace B. Maxwell, 1904
T:Public Domain Courtesy of the Cyber Hymnal™
C:Grace B. Maxwell
Z:Public Domain
Z:Courtesy of the Cyber Hymnal™
%%score ( 1 2 ) ( 3 4 )
L:1/8
Q:1/4=90
M:4/4
K:Eb
V:1 treble 
V:2 treble 
V:3 bass 
V:4 bass 
V:1
 [EG][FA] | [Gc]<[GB] [EG][DF] | [DF]<E [EF][EG] | [DA]<[DA] [DB]>[DF] | [EG]2 [EG][EG] | %5
w: 1.~I am|sa- tis- fied with|Je- sus, But a|quest- ion comes to|me As I|
w: 2.~Am I|kind in word, and|ten- der, Am I|all I ought to|be, Am I|
w: 3.~Do I|tell the bless- èd|sto- ry Of the|Christ on Cal- va-|ry, Do- ing|
 [DF]<[DF] [Ac]>[Ac] | [GB]<[EG] [EG][EG] | [E=A]<[EA] [EG]>[EF] | !fermata![DB]2 || %9
w: pon- der o’er His|good- ness, Is He|sa- tis- fied with|me?|
w: al- ways His de-|fend- er: Is He|sa- tis- fied with|me?|
w: all for His own|glo- ry: Is He|sa- tis- fied with|me?|
[M:4/4]"^Refrain" [EG][FA] | [GB]4 [EG]4 | [FA]2 [EG]2 [DF]2 [DF][EG] | %12
w: Is my|mas- ter|sa- tis- fied, Is He|
w: |||
w: |||
 [EA][Ec][EB][EA] [EG]2 [EG][EB] | [Ee][Ee][Bd][Ac] [GB]<!fermata![EG] [Ec][Ec] | %14
w: sa- tis- fied with Me? I am|sa- tis- fied with Je- sus; Is He|
w: ||
w: ||
 [EB]2 [EG]2 [EF]2 F2 | E6 |] %16
w: sa- tis- fied with|me?|
w: ||
w: ||
V:2
 x2 | x4 | x/ E3/2 x2 | x4 | x4 | x4 | x4 | x4 | x2 ||[M:4/4] x2 | x8 | x8 | x8 | x8 | x6 (DD) | %15
 (EB,CC B,2) |] %16
V:3
 [E,B,][E,B,] | [E,E]<[E,E] [E,B,][B,,B,] | [B,,B,]<[E,G,] [E,A,][E,B,] | %3
w: ~ ~|~ ~ ~ ~|~ ~ ~ ~|
 [B,,B,]<[B,,B,] [B,,F,]>[B,,B,] | [E,B,]2 [E,B,][E,B,] | [B,,B,]<[B,,B,] [B,,B,]>[B,,B,] | %6
w: ~ ~ ~ ~|~ ~ ~|~ ~ ~ ~|
 [E,B,]<[E,B,] [E,B,][E,B,] | [F,C]<[F,C] [F,B,]>[F,=A,] | [B,,B,]2 ||[M:4/4] [E,B,][E,B,] | %10
w: ~ ~ ~ ~|~ ~ ~ ~|~|Is my|
 [E,B,][E,B,][E,B,][E,B,] [E,B,]2 z2 | [B,,B,][B,,B,][B,,B,][B,,B,] [B,,B,]2 [B,,B,][E,B,] | %12
w: Mas- ter sa- tis- fied,|sa- tis- fied with Me? ~ ~|
 [E,C][E,A,][E,G,][E,C] [E,B,]2 [E,B,][G,B,] | %13
w: ~ ~ ~ ~ ~ ~ ~|
 [A,C][A,C][A,E][A,E] [E,E]<!fermata![E,B,] [=A,,^F,][A,,F,] | [B,,G,]2 [C,C]2 [A,,C]2 B,A, | %15
w: ~ ~ ~ ~ ~ ~ ~ ~|~ ~ ~ Is He|
 G,G,A,A, G,2 |] %16
w: sa- tis- fied with me?|
V:4
 x2 | x4 | x4 | x4 | x4 | x4 | x4 | x4 | x2 ||[M:4/4] x2 | x8 | x8 | x8 | x8 | x6 B,,2 | E,6 |] %16

